img/services-icon.svg

<svg width="60" height="48" viewBox="0 0 60 48" fill="none" xmlns="http://www.w3.org/2000/svg">
<path d="M22.875 36H19.125C18.4688 36 18 36.5625 18 37.125V40.875C18 41.5312 18.4688 42 19.125 42H22.875C23.4375 42 24 41.5312 24 40.875V37.125C24 36.5625 23.4375 36 22.875 36ZM22.875 18H19.125C18.4688 18 18 18.5625 18 19.125V22.875C18 23.5312 18.4688 24 19.125 24H22.875C23.4375 24 24 23.5312 24 22.875V19.125C24 18.5625 23.4375 18 22.875 18ZM13.875 18H10.125C9.46875 18 9 18.5625 9 19.125V22.875C9 23.5312 9.46875 24 10.125 24H13.875C14.4375 24 15 23.5312 15 22.875V19.125C15 18.5625 14.4375 18 13.875 18ZM13.875 36H10.125C9.46875 36 9 36.5625 9 37.125V40.875C9 41.5312 9.46875 42 10.125 42H13.875C14.4375 42 15 41.5312 15 40.875V37.125C15 36.5625 14.4375 36 13.875 36ZM13.875 27H10.125C9.46875 27 9 27.5625 9 28.125V31.875C9 32.5312 9.46875 33 10.125 33H13.875C14.4375 33 15 32.5312 15 31.875V28.125C15 27.5625 14.4375 27 13.875 27ZM22.875 27H19.125C18.4688 27 18 27.5625 18 28.125V31.875C18 32.5312 18.4688 33 19.125 33H22.875C23.4375 33 24 32.5312 24 31.875V28.125C24 27.5625 23.4375 27 22.875 27ZM49.875 36H46.125C45.4688 36 45 36.5625 45 37.125V40.875C45 41.5312 45.4688 42 46.125 42H49.875C50.4375 42 51 41.5312 51 40.875V37.125C51 36.5625 50.4375 36 49.875 36ZM49.875 27H46.125C45.4688 27 45 27.5625 45 28.125V31.875C45 32.5312 45.4688 33 46.125 33H49.875C50.4375 33 51 32.5312 51 31.875V28.125C51 27.5625 50.4375 27 49.875 27ZM57.75 18H48V2.25C48 1.03125 46.9688 0 45.75 0H26.25C24.9375 0 24 1.03125 24 2.25V9H21V1.5C21 0.75 20.25 0 19.5 0H18C17.1562 0 16.5 0.75 16.5 1.5V9H10.5V1.5C10.5 0.75 9.75 0 9 0H7.5C6.65625 0 6 0.75 6 1.5V9H2.25C0.9375 9 0 10.0312 0 11.25V46.5C0 47.3438 0.65625 48 1.5 48H3C3.75 48 4.5 47.3438 4.5 46.5V13.5H28.5V4.5H43.5V22.5H55.5V46.5C55.5 47.3438 56.1562 48 57 48H58.5C59.25 48 60 47.3438 60 46.5V20.25C60 19.0312 58.9688 18 57.75 18ZM37.875 9H34.125C33.4688 9 33 9.5625 33 10.125V13.875C33 14.5312 33.4688 15 34.125 15H37.875C38.4375 15 39 14.5312 39 13.875V10.125C39 9.5625 38.4375 9 37.875 9ZM37.875 27H34.125C33.4688 27 33 27.5625 33 28.125V31.875C33 32.5312 33.4688 33 34.125 33H37.875C38.4375 33 39 32.5312 39 31.875V28.125C39 27.5625 38.4375 27 37.875 27ZM37.875 18H34.125C33.4688 18 33 18.5625 33 19.125V22.875C33 23.5312 33.4688 24 34.125 24H37.875C38.4375 24 39 23.5312 39 22.875V19.125C39 18.5625 38.4375 18 37.875 18Z" fill="#F7654A"/>
</svg>

<svg width="60" height="48" fill="none" xmlns="http://www.w3.org/2000/svg"><path d="M22.875 36h-3.75c-.656 0-1.125.563-1.125 1.125v3.75c0 .656.469 1.125 1.125 1.125h3.75c.563 0 1.125-.469 1.125-1.125v-3.75c0-.563-.563-1.125-1.125-1.125zm0-18h-3.75c-.656 0-1.125.563-1.125 1.125v3.75c0 .656.469 1.125 1.125 1.125h3.75c.563 0 1.125-.469 1.125-1.125v-3.75c0-.563-.563-1.125-1.125-1.125zm-9 0h-3.75C9.469 18 9 18.563 9 19.125v3.75C9 23.531 9.469 24 10.125 24h3.75c.563 0 1.125-.469 1.125-1.125v-3.75c0-.563-.563-1.125-1.125-1.125zm0 18h-3.75C9.469 36 9 36.563 9 37.125v3.75C9 41.531 9.469 42 10.125 42h3.75c.563 0 1.125-.469 1.125-1.125v-3.75c0-.563-.563-1.125-1.125-1.125zm0-9h-3.75C9.469 27 9 27.563 9 28.125v3.75C9 32.531 9.469 33 10.125 33h3.75c.563 0 1.125-.469 1.125-1.125v-3.75c0-.563-.563-1.125-1.125-1.125zm9 0h-3.75c-.656 0-1.125.563-1.125 1.125v3.75c0 .656.469 1.125 1.125 1.125h3.75c.563 0 1.125-.469 1.125-1.125v-3.75c0-.563-.563-1.125-1.125-1.125zm27 9h-3.75c-.656 0-1.125.563-1.125 1.125v3.75c0 .656.469 1.125 1.125 1.125h3.75c.563 0 1.125-.469 1.125-1.125v-3.75c0-.563-.563-1.125-1.125-1.125zm0-9h-3.75c-.656 0-1.125.563-1.125 1.125v3.75c0 .656.469 1.125 1.125 1.125h3.75c.563 0 1.125-.469 1.125-1.125v-3.75c0-.563-.563-1.125-1.125-1.125zm7.875-9H48V2.25C48 1.031 46.969 0 45.75 0h-19.5C24.937 0 24 1.031 24 2.25V9h-3V1.5c0-.75-.75-1.5-1.5-1.5H18c-.844 0-1.5.75-1.5 1.5V9h-6V1.5C10.5.75 9.75 0 9 0H7.5C6.656 0 6 .75 6 1.5V9H2.25C.937 9 0 10.031 0 11.25V46.5c0 .844.656 1.5 1.5 1.5H3c.75 0 1.5-.656 1.5-1.5v-33h24v-9h15v18h12v24c0 .844.656 1.5 1.5 1.5h1.5c.75 0 1.5-.656 1.5-1.5V20.25c0-1.219-1.031-2.25-2.25-2.25zM37.875 9h-3.75C33.469 9 33 9.563 33 10.125v3.75c0 .656.469 1.125 1.125 1.125h3.75c.563 0 1.125-.469 1.125-1.125v-3.75C39 9.562 38.437 9 37.875 9zm0 18h-3.75c-.656 0-1.125.563-1.125 1.125v3.75c0 .656.469 1.125 1.125 1.125h3.75c.563 0 1.125-.469 1.125-1.125v-3.75c0-.563-.563-1.125-1.125-1.125zm0-9h-3.75c-.656 0-1.125.563-1.125 1.125v3.75c0 .656.469 1.125 1.125 1.125h3.75c.563 0 1.125-.469 1.125-1.125v-3.75c0-.563-.563-1.125-1.125-1.125z" fill="#F7654A"/></svg>
